packages/core/src/svgs/eden.svg

<svg width="24" height="24" viewBox="0 0 24 24" fill="none" xmlns="http://www.w3.org/2000/svg">
<g clip-path="url(#clip0_31_9720)">
<path d="M0 0H24V24H0V0Z" fill="url(#paint0_linear_31_9720)"/>
<path fill-rule="evenodd" clip-rule="evenodd" d="M16.0113 9.9685L12.857 6.92136V13.0199L16.0113 9.9685ZM9.54847 16.4271L11.1428 14.8842V14.8242L7.74847 11.5456V14.6914L9.54847 16.4271ZM10.4828 17.3314L11.1428 16.6928V19.7142H12.857V16.7142L14.1856 17.9999V17.9914L14.4428 18.2399L17.5585 15.2271H17.5713V9.64279H17.5456L12.9342 5.18564L11.9999 4.28564L6.45418 9.64279H6.42847V15.2271H6.44132L8.61418 17.3314L9.54418 18.2356H9.55275L10.487 17.3356L10.4828 17.3314ZM12.857 14.9142L14.4428 16.4442L16.2856 14.6571V11.5114L12.857 14.8242V14.9099V14.9142ZM7.98847 9.9685L11.1428 13.0199V6.92136L7.98847 9.9685Z" fill="url(#paint1_linear_31_9720)"/>
</g>
<defs>
<linearGradient id="paint0_linear_31_9720" x1="12" y1="0" x2="12" y2="24" gradientUnits="userSpaceOnUse">
<stop stop-color="#1B1E4F"/>
<stop offset="1" stop-color="#181B46"/>
</linearGradient>
<linearGradient id="paint1_linear_31_9720" x1="7.64132" y1="16.4785" x2="16.337" y2="9.55279" gradientUnits="userSpaceOnUse">
<stop stop-color="#10CB88"/>
<stop offset="1" stop-color="#BDF418"/>
</linearGradient>
<clipPath id="clip0_31_9720">
<rect width="24" height="24" fill="white"/>
</clipPath>
</defs>
</svg>

<svg xmlns="http://www.w3.org/2000/svg" width="24" height="24" fill="none" viewBox="0 0 24 24"><g clip-path="url(#a)"><path fill="url(#b)" d="M0 0h24v24H0z"/><path fill="url(#c)" fill-rule="evenodd" d="M16.011 9.969 12.857 6.92v6.099zm-6.463 6.458 1.595-1.543v-.06l-3.395-3.278v3.145zm.935.904.66-.638v3.021h1.714v-3L14.186 18v-.009l.257.249 3.115-3.013h.013V9.643h-.025l-4.612-4.457-.934-.9-5.546 5.357h-.026v5.584h.013l2.173 2.104.93.905h.009l.934-.9zm2.374-2.417 1.586 1.53 1.843-1.787v-3.146l-3.429 3.313v.09M7.988 9.97l3.155 3.05V6.922z" clip-rule="evenodd"/></g><defs><linearGradient id="b" x1="12" x2="12" y1="0" y2="24" gradientUnits="userSpaceOnUse"><stop stop-color="#1B1E4F"/><stop offset="1" stop-color="#181B46"/></linearGradient><linearGradient id="c" x1="7.641" x2="16.337" y1="16.479" y2="9.553" gradientUnits="userSpaceOnUse"><stop stop-color="#10CB88"/><stop offset="1" stop-color="#BDF418"/></linearGradient><clipPath id="a"><path fill="#fff" d="M0 0h24v24H0z"/></clipPath></defs></svg>
